X:12
T:Marquis of Granby’s March. JJo.012
S:J.Jones MS,1801,N.Shrops.
Z:Neil Brookes 2006
M:4/4
L:1/8
Q:1/2=80
K:C
G|c3Gc3G|c>Bc>d e>dc2|e>de>fg2f>e|d2d>dTd3::!
d>cd>ed2G2|d>cd>eTf4|e>de>fg2f>e|d3cc4:|

